office-plugin/windows-office/share/gallery/bullets/Bullet15-Arrow-Blue.svg

<svg enable-background="new 0 0 13.854 13.852" height="13.852" viewBox="0 0 13.854 13.852" width="13.854" xmlns="http://www.w3.org/2000/svg" xmlns:xlink="http://www.w3.org/1999/xlink"><linearGradient id="a" gradientUnits="userSpaceOnUse" x1="-.1699" x2="13.339" y1=".1025" y2="13.0912"><stop offset="0" stop-color="#0d69c8"/><stop offset="1" stop-color="#1b3962"/></linearGradient><mask id="b" height="12.453" maskUnits="userSpaceOnUse" width="12.453" x=".7" y=".699"><path d="m12.493.456-11.143.099-.693.56s-.264 7.254-.296 10.154c6.362-.132 12.925-9.857 12.925-9.857z" fill="url(#c)" opacity=".75"/></mask><linearGradient id="c" gradientUnits="userSpaceOnUse" x1=".4136" x2="7.9311" y1=".4565" y2="7.2153"><stop offset="0" stop-color="#fff"/><stop offset="1"/></linearGradient><path d="m13.854 12.452c0 .77-.631 1.399-1.4 1.399h-11.054c-.77 0-1.4-.63-1.4-1.399v-11.053c0-.769.631-1.399 1.4-1.399h11.053c.77 0 1.4.63 1.4 1.399v11.053z" fill="url(#a)"/><g fill="#efefef"><path d="m9.465 2.492h1.738v8.736h-1.738z"/><path d="m2.444 2.469h8.736v1.737h-8.736z"/><path d="m5.519 2.66h1.739v9.155h-1.739z" transform="matrix(.7065 .7077 -.7077 .7065 6.9966 -2.3967)"/></g><path d="m13.153 11.894c0 .691-.566 1.259-1.259 1.259h-9.935c-.692 0-1.259-.567-1.259-1.259v-9.936c0-.691.566-1.259 1.259-1.259h9.936c.692 0 1.259.567 1.259 1.259v9.936z" fill="#fff" mask="url(#b)" opacity=".8"/></svg>

<?xml version="1.0" encoding="utf-8"?>
<!-- Generator: Adobe Illustrator 12.0.1, SVG Export Plug-In . SVG Version: 6.00 Build 51448)  -->
<!DOCTYPE svg PUBLIC "-//W3C//DTD SVG 1.1//EN" "http://www.w3.org/Graphics/SVG/1.1/DTD/svg11.dtd" [
	<!ENTITY ns_svg "http://www.w3.org/2000/svg">
	<!ENTITY ns_xlink "http://www.w3.org/1999/xlink">
]>
<svg  version="1.1" id="图层_1" xmlns="&ns_svg;" xmlns:xlink="&ns_xlink;" width="13.854" height="13.852"
	 viewBox="0 0 13.854 13.852" overflow="visible" enable-background="new 0 0 13.854 13.852" xml:space="preserve">
<g>
	<linearGradient id="XMLID_4_" gradientUnits="userSpaceOnUse" x1="-0.1699" y1="0.1025" x2="13.339" y2="13.0912">
		<stop  offset="0" style="stop-color:#0D69C8"/>
		<stop  offset="1" style="stop-color:#1B3962"/>
	</linearGradient>
	<path fill="url(#XMLID_4_)" d="M13.854,12.452c0,0.77-0.631,1.399-1.4,1.399H1.4c-0.77,0-1.4-0.63-1.4-1.399V1.399
		C0,0.63,0.631,0,1.4,0h11.053c0.77,0,1.4,0.63,1.4,1.399V12.452z"/>
	<g>
		<rect x="9.465" y="2.492" fill="#EFEFEF" width="1.738" height="8.736"/>
		<rect x="2.444" y="2.469" fill="#EFEFEF" width="8.736" height="1.737"/>
		
			<rect x="5.519" y="2.66" transform="matrix(0.7065 0.7077 -0.7077 0.7065 6.9966 -2.3967)" fill="#EFEFEF" width="1.739" height="9.155"/>
	</g>
	<defs>
		<filter id="Adobe_OpacityMaskFilter" filterUnits="userSpaceOnUse" x="0.7" y="0.699" width="12.453" height="12.453">
			<feColorMatrix  type="matrix" values="1 0 0 0 0  0 1 0 0 0  0 0 1 0 0  0 0 0 1 0"/>
		</filter>
	</defs>
	<mask maskUnits="userSpaceOnUse" x="0.7" y="0.699" width="12.453" height="12.453" id="XMLID_5_">
		<g filter="url(#Adobe_OpacityMaskFilter)">
			<linearGradient id="XMLID_6_" gradientUnits="userSpaceOnUse" x1="0.4136" y1="0.4565" x2="7.9311" y2="7.2153">
				<stop  offset="0" style="stop-color:#FFFFFF"/>
				<stop  offset="1" style="stop-color:#000000"/>
			</linearGradient>
			<path opacity="0.75" fill="url(#XMLID_6_)" d="M12.493,0.456L1.35,0.555L0.657,1.115c0,0-0.264,7.254-0.296,10.154
				c6.362-0.132,12.925-9.857,12.925-9.857L12.493,0.456z"/>
		</g>
	</mask>
	<path opacity="0.8" mask="url(#XMLID_5_)" fill="#FFFFFF" d="M13.153,11.894c0,0.691-0.566,1.259-1.259,1.259H1.959
		c-0.692,0-1.259-0.567-1.259-1.259V1.958c0-0.691,0.566-1.259,1.259-1.259h9.936c0.692,0,1.259,0.567,1.259,1.259V11.894z"/>
</g>
</svg>
